public/images/fotterSocial.svg

<svg width="238" height="65" viewBox="0 0 238 65" fill="none" xmlns="http://www.w3.org/2000/svg">
<g opacity="0.05" filter="url(#filter0_b_770_90)">
<rect width="237.9" height="65" rx="32.5" fill="url(#paint0_linear_770_90)"/>
<rect x="0.65" y="0.65" width="236.6" height="63.7" rx="31.85" stroke="white" stroke-width="1.3"/>
</g>
<g clip-path="url(#clip0_770_90)">
<path d="M106.252 25.6133C105.438 25.974 104.563 26.2178 103.644 26.328C104.593 25.7603 105.302 24.8669 105.641 23.8144C104.749 24.3438 103.774 24.7165 102.757 24.9162C102.073 24.1858 101.167 23.7016 100.179 23.539C99.1917 23.3763 98.1782 23.5441 97.296 24.0165C96.4138 24.4888 95.7122 25.2392 95.3001 26.1512C94.888 27.0632 94.7886 28.0857 95.0172 29.0599C93.2112 28.9692 91.4444 28.4998 89.8316 27.6822C88.2187 26.8645 86.7958 25.7168 85.6552 24.3136C85.2652 24.9864 85.041 25.7664 85.041 26.5971C85.0406 27.3449 85.2247 28.0813 85.5771 28.7408C85.9295 29.4004 86.4393 29.9628 87.0612 30.3781C86.34 30.3552 85.6346 30.1603 85.0039 29.8097V29.8682C85.0039 30.917 85.3667 31.9336 86.0308 32.7454C86.6949 33.5572 87.6195 34.1143 88.6475 34.322C87.9785 34.5031 87.277 34.5297 86.5961 34.4C86.8862 35.3025 87.4512 36.0916 88.2121 36.657C88.9729 37.2224 89.8915 37.5358 90.8393 37.5531C89.2304 38.8162 87.2434 39.5013 85.198 39.4983C84.8356 39.4984 84.4736 39.4772 84.1138 39.4349C86.19 40.7698 88.6069 41.4783 91.0753 41.4756C99.431 41.4756 103.999 34.555 103.999 28.5529C103.999 28.3579 103.994 28.161 103.985 27.966C104.874 27.3234 105.641 26.5277 106.25 25.6162L106.252 25.6133Z" fill="white"/>
</g>
<path d="M53.947 24.424L36.6603 31.0901C35.4805 31.5639 35.4873 32.2221 36.4438 32.5155L40.882 33.9L51.1507 27.4212C51.6363 27.1257 52.0799 27.2847 51.7152 27.6084L43.3956 35.1168H43.3936L43.3956 35.1178L43.0894 39.6925C43.5379 39.6925 43.7358 39.4868 43.9874 39.244L46.1431 37.1478L50.6271 40.4598C51.4539 40.9152 52.0477 40.6812 52.2534 39.6945L55.197 25.8222C55.4982 24.6141 54.7358 24.0672 53.947 24.424Z" fill="white"/>
<path d="M196.448 24.9541C196.254 25.3009 196.082 25.659 195.931 26.0266C194.452 25.7927 192.945 25.7927 191.465 26.0266C191.315 25.659 191.142 25.3009 190.949 24.9541C189.555 25.1922 188.201 25.6186 186.922 26.2216C184.636 29.5213 183.599 33.5272 183.997 37.5219C185.487 38.642 187.159 39.4963 188.94 40.0471C189.346 39.5114 189.708 38.9441 190.022 38.3506C189.441 38.1364 188.883 37.8653 188.355 37.5414C188.5 37.445 188.637 37.3375 188.765 37.2196C190.304 37.9609 191.99 38.3459 193.698 38.3459C195.406 38.3459 197.093 37.9609 198.632 37.2196C198.768 37.3366 198.905 37.4439 199.041 37.5414C198.511 37.8628 197.953 38.1368 197.374 38.3604C197.676 38.9673 198.028 39.5479 198.427 40.0959C200.206 39.5469 201.875 38.6924 203.36 37.5706C203.768 33.5753 202.731 29.566 200.435 26.2704C199.171 25.6549 197.83 25.2122 196.448 24.9541ZM190.461 35.2404C189.973 35.2053 189.518 34.9826 189.191 34.6191C188.864 34.2555 188.69 33.7792 188.706 33.2904C188.687 32.8008 188.86 32.3232 189.188 31.9591C189.516 31.595 189.972 31.373 190.461 31.3404C190.95 31.373 191.407 31.595 191.735 31.9591C192.062 32.3232 192.235 32.8008 192.216 33.2904C192.235 33.7799 192.062 34.2575 191.735 34.6216C191.407 34.9857 190.95 35.2077 190.461 35.2404ZM196.935 35.2404C196.447 35.2053 195.992 34.9826 195.665 34.6191C195.338 34.2555 195.164 33.7792 195.18 33.2904C195.161 32.8008 195.334 32.3232 195.662 31.9591C195.99 31.595 196.446 31.373 196.935 31.3404C197.425 31.3706 197.883 31.5918 198.211 31.9565C198.54 32.3212 198.712 32.8002 198.69 33.2904C198.712 33.7805 198.54 34.2595 198.211 34.6242C197.883 34.9889 197.425 35.2102 196.935 35.2404Z" fill="white"/>
<g clip-path="url(#clip1_770_90)">
<path d="M145.8 32.5002C145.8 36.1345 142.845 39.0815 139.199 39.0815C138.334 39.0826 137.477 38.9133 136.677 38.5832C135.877 38.2531 135.15 37.7686 134.537 37.1575C133.924 36.5464 133.438 35.8205 133.106 35.0214C132.773 34.2223 132.602 33.3656 132.601 32.5002C132.601 28.8644 135.555 25.919 139.199 25.919C140.065 25.9176 140.922 26.0868 141.722 26.4168C142.523 26.7468 143.25 27.2313 143.863 27.8424C144.476 28.4535 144.962 29.1794 145.295 29.9786C145.627 30.7778 145.798 31.6347 145.8 32.5002ZM153.039 32.5002C153.039 35.9225 151.562 38.6954 149.74 38.6954C147.917 38.6954 146.44 35.921 146.44 32.5002C146.44 29.078 147.917 26.3051 149.74 26.3051C151.562 26.3051 153.039 29.0794 153.039 32.5002ZM156.001 32.5002C156.001 35.5656 155.481 38.0504 154.839 38.0504C154.199 38.0504 153.68 35.5641 153.68 32.5002C153.68 29.4348 154.199 26.95 154.841 26.95C155.481 26.95 156.001 29.4348 156.001 32.5002Z" fill="white"/>
</g>
<defs>
<filter id="filter0_b_770_90" x="-10" y="-10" width="257.9" height="85" filterUnits="userSpaceOnUse" color-interpolation-filters="sRGB">
<feFlood flood-opacity="0" result="BackgroundImageFix"/>
<feGaussianBlur in="BackgroundImage" stdDeviation="5"/>
<feComposite in2="SourceAlpha" operator="in" result="effect1_backgroundBlur_770_90"/>
<feBlend mode="normal" in="SourceGraphic" in2="effect1_backgroundBlur_770_90" result="shape"/>
</filter>
<linearGradient id="paint0_linear_770_90" x1="118.95" y1="0" x2="118.95" y2="65" gradientUnits="userSpaceOnUse">
<stop stop-color="#567BFF"/>
<stop offset="1" stop-color="#5578F8" stop-opacity="0"/>
</linearGradient>
<clipPath id="clip0_770_90">
<rect width="23.4" height="23.4" fill="white" transform="translate(83.1997 20.7998)"/>
</clipPath>
<clipPath id="clip1_770_90">
<rect width="23.4" height="23.4" fill="white" transform="translate(132.6 20.7998)"/>
</clipPath>
</defs>
</svg>

<svg width="238" height="65" fill="none" xmlns="http://www.w3.org/2000/svg"><g opacity=".05" filter="url(#a)"><rect width="237.9" height="65" rx="32.5" fill="url(#b)"/><rect x=".65" y=".65" width="236.6" height="63.7" rx="31.85" stroke="#fff" stroke-width="1.3"/></g><g clip-path="url(#c)"><path d="M106.252 25.613a9.1 9.1 0 0 1-2.608.715 4.555 4.555 0 0 0 1.997-2.514 9.077 9.077 0 0 1-2.884 1.102 4.542 4.542 0 0 0-7.457 1.235 4.543 4.543 0 0 0-.283 2.909 12.9 12.9 0 0 1-9.362-4.746 4.544 4.544 0 0 0 1.406 6.064 4.53 4.53 0 0 1-2.057-.568v.058a4.544 4.544 0 0 0 3.643 4.454 4.575 4.575 0 0 1-2.05.078 4.544 4.544 0 0 0 4.242 3.153 9.114 9.114 0 0 1-5.641 1.945c-.362 0-.724-.02-1.084-.063a12.846 12.846 0 0 0 6.961 2.04c8.356 0 12.924-6.92 12.924-12.922 0-.195-.005-.392-.014-.587a9.219 9.219 0 0 0 2.265-2.35l.002-.003z" fill="#fff"/></g><path d="M53.947 24.424 36.66 31.09c-1.18.474-1.173 1.132-.216 1.426l4.438 1.384 10.269-6.479c.485-.295.929-.136.564.187l-8.32 7.509h-.001.002l-.307 4.576c.449 0 .647-.206.898-.449l2.156-2.096 4.484 3.312c.827.455 1.42.221 1.626-.766l2.944-13.872c.301-1.208-.461-1.755-1.25-1.398zM196.448 24.954a9.901 9.901 0 0 0-.517 1.073 14.3 14.3 0 0 0-4.466 0 9.894 9.894 0 0 0-.516-1.073 15.6 15.6 0 0 0-4.027 1.268 16.901 16.901 0 0 0-2.925 11.3 16.183 16.183 0 0 0 4.943 2.525c.406-.536.768-1.103 1.082-1.696a9.417 9.417 0 0 1-1.667-.81c.145-.096.282-.203.41-.321a11.367 11.367 0 0 0 9.867 0c.136.117.273.224.409.321-.53.322-1.088.596-1.667.82.302.606.654 1.187 1.053 1.735a16.02 16.02 0 0 0 4.933-2.525 16.784 16.784 0 0 0-2.925-11.3 15.683 15.683 0 0 0-3.987-1.317zm-5.987 10.286a1.89 1.89 0 0 1-1.755-1.95 1.88 1.88 0 0 1 1.755-1.95 1.883 1.883 0 0 1 1.755 1.95 1.884 1.884 0 0 1-1.755 1.95zm6.474 0a1.89 1.89 0 0 1-1.755-1.95 1.88 1.88 0 0 1 1.755-1.95 1.87 1.87 0 0 1 1.755 1.95 1.87 1.87 0 0 1-1.755 1.95z" fill="#fff"/><g clip-path="url(#d)"><path d="M145.8 32.5c0 3.635-2.955 6.581-6.601 6.581a6.59 6.59 0 0 1-6.598-6.58c0-3.637 2.954-6.582 6.598-6.582a6.587 6.587 0 0 1 6.096 4.06c.332.799.503 1.656.505 2.521zm7.239 0c0 3.422-1.477 6.195-3.299 6.195-1.823 0-3.3-2.774-3.3-6.195 0-3.422 1.477-6.195 3.3-6.195 1.822 0 3.299 2.774 3.299 6.195zm2.962 0c0 3.066-.52 5.55-1.162 5.55-.64 0-1.159-2.486-1.159-5.55 0-3.065.519-5.55 1.161-5.55.64 0 1.16 2.485 1.16 5.55z" fill="#fff"/></g><defs><clipPath id="c"><path fill="#fff" transform="translate(83.2 20.8)" d="M0 0h23.4v23.4H0z"/></clipPath><clipPath id="d"><path fill="#fff" transform="translate(132.6 20.8)" d="M0 0h23.4v23.4H0z"/></clipPath><linearGradient id="b" x1="118.95" y1="0" x2="118.95" y2="65" gradientUnits="userSpaceOnUse"><stop stop-color="#567BFF"/><stop offset="1" stop-color="#5578F8" stop-opacity="0"/></linearGradient><filter id="a" x="-10" y="-10" width="257.9" height="85" filterUnits="userSpaceOnUse" color-interpolation-filters="sRGB"><feFlood flood-opacity="0" result="BackgroundImageFix"/><feGaussianBlur in="BackgroundImage" stdDeviation="5"/><feComposite in2="SourceAlpha" operator="in" result="effect1_backgroundBlur_770_90"/><feBlend in="SourceGraphic" in2="effect1_backgroundBlur_770_90" result="shape"/></filter></defs></svg>
